X:96
T:George Green's Slow (College) Hornpipe
M:6/8
L:1/8
K:G
DEF|:G2B A2G|F3DEF|G2B A2G|F3d3|
c2B A2G|F2D F2G|A2G F2E|D3DEF|
G2B A2G|F3DEF|G2B A2G|F3d3|
c2B A2G|F2D E2F|A3G3|[1G3DEF:|[2G3-G3
|:B3d3|B3d3|e2d c2B|c3-c3|
c2B A2G|F2D F2G|A2G F2E|D3DEF|
G2B A2G|F3DEF|G2B A2G|F3d3|
c2B A2G|F2D E2F|A3G3|G3-G3:|
